X: 231
T:Dukie's Hornpipe
M:C|
L:1/8
C:Brian Duke
R:hornpipe
D:Cian: Three Shouts from a Hill
Z:Devin McCabe
K:A
ABcd eaed|cecA BAFA|E2AB cefe|c'bba b2ab|
!c'bba faea|fece BAFA|EFAB cef2|ecBc A4:|
K:AMin
!:ABcd eaed|cABc AG^FG|EGAB cdef|ea^gb a3b|
!(3c'ba (3bag (3age (3ged|(3ege (3ded (3cdc Bc|ABcd eaed|cABc A4:|
